X:176
T: KEIN BESSER LEBEN IST AUF DIESER WELT
N: E1319
O: Europa, Mitteleuropa, Deutschland
R: Staende -, Soldaten - Lied; historisch, Siebenjaehriger Krieg 1807
M: 2/4
L: 1/16
K: G
D2 | G2B2B2d2 | d4B2
B2 | c3de2c2 | c4B2
D2 | G2B2B2d2 | d4B2
B2 | c3de2c2 | c4B2
d2 | d2A2A2d2 | d4^c2
d2 | e2A2A2G2 | G4F2
D2 | G2B2B2d2 | d4B2
d2 | e2c2A2F2 | G4
B2BB | B2B2B4- | B4z2

